X:262
T:Stoney Steps Hornpipe TS.262
M:C|
L:1/8
Q:1/2=84
S:Thomas Sands’ MS,1810,Lincolnshire
R:.hornpipe
O:England;Lincolnshire
Z:vmp.Ruairidh Greig, 2011
K:Bb
B>Fd>B f>db>g|e>cA>c B>AG>F|G>ED>E C>FB,>B|c>eg>B”tr”B2A2|
B>Fd>B f>db>g|e>cA>c B>AG>F|G>ED>E D>EC>e|d>cB>AB4:|
|:D>B,F>D B>Fd>B|e>ge>c B>AG>F|(G>AB>G) F>fg>b|a>gf>=ef4|
g>ed>e f>dc>B|G>Be>c B>AG>F|G>ED>E D>EC>e|d>cB>AB4:|]

